X: 4
T: The Hag At The Churn
R: jig
M: 6/8
L: 1/8
K: Emix
|:B2A BEE|B2A Bed|B2A BEE|FGA FGA|
Bc/B/A BEE|Bc/B/A Bed|Bc/B/A BEE|FGA FGA||
|:Bec d3|Bee fga|Bec d2A|F3 AFE|
Bec d3|Bee fga|gaf edB|AFG AFE||


Tune 829	Setting 25103

